X:120
T:Mick McShane's Highland* (h)
B:NFID.155a ("untitled highland")
120mick_mc
S:CC
L:1/8
M:C
R:hornpipe
Q:280
K:A=G
ed|: c<AAB cAAF|G2GF GABd|cA~A2 cAAg|(3fga fd gfed:|
K:Am
cde^f gage|dBGB dedB|cde^f gage|(3^fga ^fd g^fed|
cde^f gage|dBGB dg^fg|(3aba ^fa g^fed|cde^f g^fed||

%%%

